X:171
T:Hornpipe
O: No 171 William Clarke of Feltwell
M: C
L:1/8
K:G
N:Transcribed by M Humphreys May 2010.
N:A.k.a.Holywell Bar line misplaced in B bars 6-7
Bc| d3g edcB| dcdg edcB| DGBG DGBG| B2 A2A2Bc| d3g| edcB| dcdg edcB| gfgd ecAF| G2G2G2:||
Bc| d3e dBGB| e2e2e2z2| cdce dcBA| egfa g4|
dBdg eceg|fdfa gfed|gfgd ecAF| G2G2G2:||

